X:363
T:Quick Step. RH.363
R:quickstep
S:Rev.R.Harrison’s MS,c1815,Cumbria
N:Can you have 2/4, 4/4 and 6/8 quicksteps?
O:England
A:Temple Sowerby,Cumbria
Z:vmp.Simon Wilson. Review PJH, 2008.
M:6/8
L:1/8
Q:3/8=110
K:G
d|d>Bd g2a|{ga}bag g2d|def gab|c’aa a2b|\
d>Bd g2a|{ga}bag g2d|efg abc’|bgg g2:|!
|:b/c’/|d’3 bgb|d’3 bgb|d’bg dga|baa a2b/c’/|\
d’c’b c’ba|bag fed|efg abc’|bgg g2|]

